/* XPM */
static char *lttp_pedestal[] = {
"16 32 10 1",
". c None",
"K c #202020",
"Y c #e8c030",
"b c #203078",
"e c #e0d8c0",
"s c #b0a890",
"B c #4060c8",
"W c #f0f8ff",
"z c #706858",
"S c #a8b8d0",
".......KK.......",
"......KYYK......",
"......KBbK......",
"......KBbK......",
"...KKKKBbKKKK...",
"..KYBBBBBBBBYK..",
"...KKKKWSKKKK...",
"......KWSK......",
"......KWSK......",
"......KWSK......",
"......KWSK......",
"......KWSK......",
"......KWSK......",
"......KWSK......",
"......KWSK......",
"......KWSK......",
"......KWSK......",
"......KWSK......",
"..KKKKKWSKKKKK..",
".KeeeeeeeeeeeeK.",
".KsssssssssssszK",
".KsszzsssszzsszK",
".KsssssssssssszK",
"KeeeeeeeeeeeeeeK",
"KssssssssssssszK",
"KsszsssszsssszzK",
"KssssssssssssszK",
"KzzzzzzzzzzzzzzK",
"KKKKKKKKKKKKKKKK",
"................",
"................",
"................"
};
