/* XPM */
static char *lttp_tiles[] = {
"160 16 22 1",
"B c #206818",
"O c #505058",
"U c #a86830",
"c c #78a8f0",
"s c #c8c0a8",
"z c #888070",
"o c #909098",
"q c #b89058",
"w c #f8f8f8",
"y c #f8d030",
"e c #c8c8d0",
"G c #48b030",
"L c #98e060",
"b c #3060c8",
"u c #6c4020",
"k c #684028",
"d c #387830",
"l c #88c858",
"p c #d8b878",
"r c #a87850",
"h c #d0a070",
"g c #58a848",
"ggggggggggggggggggggggggggggggggqpppppppppppppppbbbbbbbbbbbbbbbbgggggggggggggggghrrkhrrrkhrkhrrkkeeeeeeeeeeeeeekggggggggggggggggggggggggggggggggkhUUUuUUUuUUUuhk",
"ggggggggggggggggggggggggggggggggppppppppqpppppppbbbbbbbbbbbbbbbbgggggggggggggggghrrkhrrrkhkkhrrkksssssssssssssskggggggBBBBggggggggggggggggggggggkhUUUuUUUuuUUuhk",
"gggggggggggdldgggggggggggggggdggpppppqppppppppppbbbbbbbbbbbbbbbbgggggggggggdldgghkrkhrrrkhrkhrrkksssssssssssssskggggBLLGLLGBggggggggggOOOOggggggkhUUUuUuUuUUUuhk",
"ggggggggggggdgggggggwgggggggggggpqppppppppppppppcccbbbbccccbbbbcggggdggggggddggghrrkhrrrkkkkhkrkkzzzzzzzzzzzzzzkgggBLLBLLGGBBgggggggOOeeeoOOggggkhUUuuUUUuUUUuhk",
"gggdldgggggggggggggwywggggggggggpppppppppqqpppppbbbbbbbbbbbbbbbbddgdhddgdddkgdddhrkkhrrrkhrkhrrkkeeeeeeeeeeeeeekggBLLGLLBGGGGBgggggOeeeeooOoOgggkhUUUuUUUuUUUuhk",
"ggggdgggggggggggggggwgggggggggggppppppppppppppppbbbbbbbbbbbbbbbbkkdkhrrdkhrkdrkkkkkkhrrrkhrkhrkkksssssssssssssskgBLLGLLGGGBGGGBgggOeeeeoOooooOggkhUUUuUUUuUuUuhk",
"ggggggggggggggggggggggggggggggggppqppppppppppppqbbbbbbbbbbbbbbbbhrrkhkrrkhrkhrrkhrrkhkrrkhrkhrrkksssssssssssssskgBLGLLGBGGGGBGBggOeeeeOoooooOoOgkhUUUuUUuuUUUuhk",
"ggggggggggggggggggggggggggggggggppqpppppppqpppppbbbbbbbbbbbbbbbbhrrkhrrrkhrkhrrkhrrkhrrrkhrkhrrkkzzzzzzzzzzzzzzkgBGLLGGGGBGGGGBggOeeeoooooOoooOgkhUUUuUUUuUUUuhk",
"ggggggggggggggggggggggggggggggggppppppppppppppppbbbbbbbbbbbbbbbbhrrkhrkrkhrkhrrkhrrkhrkrkhrkhrrkkeeeeeeeeeeeeeekgBLLGGBGGGGBGGGggOeeooooOoooooOgkhuUUuUUUuUUUuhk",
"gggggggggggggggggggggggggggwggggpppqpppqppppppppbbbbbbbbbbbbbbbbhrrkhrrrkhrkhrrkhrrkhrrrkhrkhrrkksssssssssssssskgBLBGGGGBGGGGBBggOeoooOoooooOoOgkhUUUuUUUuUUuuhk",
"gggggggdldggggggggggggggggwywgggpppppppppppqppppbbbbbbbbbbbbbbbbhrrkhrrkkhrkkkkkhrrkhrrkkhrkkkkkksssssssssssssskgBGGGBGGGGBGGGBggOooOoooooOoooOgkhUUUuUUUuUUUuhk",
"ggggggggdggggggggggggggggggwggggppppppppppppqpppcccbbbbccccbbbbchrrkhrrrkhrkhrrkhrrkhrrrkhrkhrrkkzzzzzzzzzzzzzzkgBBGGGGBGGGGBGBggOOoooooOoooooOgkhUUUuuUUuUUUuhk",
"gggggggggggggdldggggggggggggggggppppqpppppppppppbbbbbbbbbbbbbbbbhrrkkkkkkhkkhrrkhrrkkkkkkhkkhrrkkeeeeeeeeeeeeeekggBGBGGGGBGGGBggggOoooOoooooOOggkhUuUuUUUuUUUuhk",
"gdldggggggggggdggdggggggggggggggppppppppppppqpppbbbbbbbbbbbbbbbbhkrkhrrrkhrkhrrkhkrkhrrrkhrkhrrkksssssssssssssskgggBGGBGGGGBBggggggOOoooooOoOgggkhUUUuUUUuUUUuhk",
"ggdgggggggggggggggggggggggggggggppppqpppppppppppbbbbbbbbbbbbbbbbhrrkhrrrkhrkhkrkhrrkhrrrkhrkhkrkksssssssssssssskggggBGGGBGGBggggggggOOooOoOOggggkhUUUuUUUuuUUuhk",
"ggggggggggggggggggggggggggggggggpppppqppppppppppbbbbbbbbbbbbbbbbhrkkhrrrkhrkhrrkhrkkhrrrkhrkhrrkkzzzzzzzzzzzzzzkggggggBBBBggggggggggggOOOOggggggkhUUUuUuUuUUUuhk"
};
