/* XPM */
static char *lttp_items[] = {
"48 16 10 1",
". c None",
"K c #202020",
"g c #107020",
"G c #30c040",
"P c #40c050",
"Y c #f8d840",
"p c #187028",
"R c #e83030",
"W c #e8fff0",
"r c #901818",
".......................................YY.......",
"......KKKK............................Y..Y......",
".....KGWWGK........KKK...KKK..........Y..Y......",
"....KGWGGGgK......KRWRK.KRRRK..........YY.......",
"....KWGGGGgK.....KRWRRRKRRRRrK......KKKKKKKK....",
"....KWGGGGgK.....KRRRRRRRRRRrK.....KPPPWPPPpK...",
"....KWGGGGgK.....KRRRRRRRRRRrK.....KPPWPPPPpK...",
"....KWGGGGgK......KRRRRRRRRrK.......KPPPPPpK....",
"....KWGGGGgK.......KRRRRRRrK........KPPPPPpK....",
"....KGGGGGgK........KRRRRrK..........KPPPpK.....",
"....KGGGGggK.........KRRrK...........KPPPpK.....",
".....KGggggK..........KrK.............KPpK......",
"......KKKKK............K..............KPpK......",
".......................................KK.......",
"................................................",
"................................................"
};
