/* XPM */
static char *lttp_link[] = {
"96 22 9 1",
". c None",
"g c #18602c",
"H c #f07850",
"S c #f8c890",
"R c #c04840",
"K c #202020",
"G c #38a838",
"B c #885018",
"Y c #f8d830",
"......gggg............gggg............gggg............gggg............ggggg...........ggggg.....",
"....ggGGGGgg........ggGGGGgg........ggGGGGgg........ggGGGGgg........ggGGGGGg........ggGGGGGg....",
"...gGGGGGGGGg......gGGGGGGGGg......gGGGGGGGGg......gGGGGGGGGg......gGGGGGGGGg......gGGGGGGGGg...",
"..gGGGGGGGGGGg....gGGGGGGGGGGg....gGGGGGGGGGGg....gGGGGGGGGGGg...ggGGGGGGGGGGg...ggGGGGGGGGGGg..",
"..HHHGGGGGGHHH....HHHGGGGGGHHH....HGGGGGGGGGGH....HGGGGGGGGGGH..gGGHHHHGGGGGGg..gGGHHHHGGGGGGg..",
".HHSSSSSSSSSSHH..HHSSSSSSSSSSHH..HHHGGGGGGGGHHH..HHHGGGGGGGGHHH..ggHHHHSSSSSS....ggHHHHSSSSSS...",
".HSSKKSSSSKKSSH..HSSKKSSSSKKSSH..HHHHHGGGGHHHHH..HHHHHGGGGHHHHH....HHHSSSSKSS......HHHSSSSKSS...",
".HSSKKSSSSKKSSH..HSSKKSSSSKKSSH..HHHHHHHHHHHHHH..HHHHHHHHHHHHHH....HHHSSSSKSSS.....HHHSSSSKSSS..",
"..SSSSSSSSSSSS....SSSSSSSSSSSS....HHHHHHHHHHHH....HHHHHHHHHHHH......HHSSSSSSSS......HHSSSSSSSS..",
"...SSSSRRSSSS......SSSSRRSSSS......HHHHHHHHHH......HHHHHHHHHH........SSSSSSR.........SSSSSSR....",
"....gSSSSSSg........gSSSSSSg........gHHHHHHg........gHHHHHHg..........gSSSSg..........gSSSSg....",
"...gGGGGGGGGg......gGGGGGGGGg......gGGGGGGGGg......gGGGGGGGGg........gGGGGGGg........gGGGGGGg...",
"..SGGGGGGGGGGS....SGGGGGGGGGGS....SGGGGGGGGGGS....SGGGGGGGGGGS......gGGGGGGGSS......gGGGGGGGSS..",
".SSGBBBYYBBBGSS..SSGBBBYYBBBGSS..SSGBBBBBBBBGSS..SSGBBBBBBBBGSS.....GBBBBBBBSS......GBBBBBBBSS..",
"..SGGGGGGGGGGS....SGGGGGGGGGGS....SGGGGGGGGGGS....SGGGGGGGGGGS......gGGGGGGGg.......gGGGGGGGg...",
"...GGGGGGGGGG......GGGGGGGGGG......GGGGGGGGGG......GGGGGGGGGG.......GGGGGGGGG.......GGGGGGGGG...",
"...gGGGGGGGGg......gGGGGGGGGg......gGGGGGGGGg......gGGGGGGGGg.......gGGGGGGGg.......gGGGGGGGg...",
"...gGGGGGGGGg......gGGGGGGGGg......gGGGGGGGGg......gGGGGGGGGg........gGGGGGg.........gGGGGGg....",
"....ggg..ggg........ggg...gg........ggg..ggg........ggg...gg.........ggg.gg.........ggg...gg....",
"....SSS..SSS........SSS...BBB.......BBB..BBB........BBB...BBB........SSS.SS........SSS.....SS...",
"...BBBB..BBBB......BBBB...BBB......BBBB..BBBB......BBBB...BBB.......BBBB.BBBB.....BBBB.....BBBB.",
"...BBBB..BBBB......BBBB............BBBB..BBBB......BBBB.............BBBB.BBBB.....BBBB.....BBBB."
};
