/* XPM */
static char *lttp_soldier[] = {
"48 22 8 1",
". c None",
"m c #586890",
"a c #183888",
"S c #f8c890",
"A c #3868d8",
"K c #202020",
"P c #a06828",
"M c #d0d8e8",
"......mmmm.....M......mmmm.....M.....mmmm......M",
"....mmMMMMmm...M....mmMMMMmm...M...mmMMMMmm....M",
"...mMMMMMMMMm..P...mMMMMMMMMm..P..mMMMMMMMMm...P",
"..mMMMMMMMMMMm.P..mMMMMMMMMMMm.P.mMMMMMMMMMMm..P",
"..mMMMMMMMMMMm.P..mMMMMMMMMMMm.P.mMMMMMMMMMMm..P",
"..mmSSSSSSSSmm.P..mMMMMMMMMMMm.P.mmmmMMSSSSSm..P",
"..mSKKSSSSKKSm.P..mMMMMMMMMMMm.P..mmmMSSSKSS...P",
"..mSSSSSSSSSSm.P..mmMMMMMMMMmm.P..mmmSSSSKSS...P",
"...mSSSSSSSSm..P...mmmmmmmmmm..P...mmSSSSSSS...P",
"....aaaaaaaa...P....aaaaaaaa...P....aaaaaaa....P",
"..aaAAAAAAAAaaSP..aaAAAAAAAAaaSP...aAAAAAAAaaSSP",
".aAAAAAAAAAAAaSP.aAAAAAAAAAAAaSP...aAAAAAAAaSS.P",
".aAAAMMMMMMAAa.P.aAAAMMMMMMAAa.P...aMMMMMMMMa..P",
".SAAAAAAAAAAAa.P.SAAAAAAAAAAAa.P...aAAAAAAAAa..P",
"..aAAAAAAAAAa..P..aAAAAAAAAAa..P...aAAAAAAAAa..P",
"..aAAAAAAAAAa..P..aAAAAAAAAAa..P...aAAAAAAAAa..P",
"...aAAAAAAAa...P...aAAAAAAAa...P....aAAAAAAa...P",
"...aaa...aaa...P...aaa...aaa...P....aaa..aaa...P",
"...mmm...mmm...P...mmm...mmm...P....mmm..mmm...P",
"..mmmm...mmmm..P..mmmm...mmmm..P...mmmm..mmmm..P",
"..mmmm...mmmm.....mmmm...mmmm......mmmm..mmmm...",
"................................................"
};
