/* XPM */
static char *lttp_tree[] = {
"32 40 7 1",
". c None",
"t c #583010",
"T c #905828",
"O c #102818",
"D c #206030",
"L c #40a050",
"l c #88d068",
".............OOOOO..............",
"...........OOllllLOO............",
"..........OlllllLLLDO...........",
".........OlllllLLLLLDO..........",
".........OllllLLLLLLLO..........",
"........OllllLLLLLLLLDO.........",
".....OOOllLLLLLLLLLllllOOO......",
"....OllllLLLDllllllllllLLLO.....",
"...OllllLLLllllllLLDllLLLLLO....",
"..OllllLLLllllllLLLDDLLLLLLDO...",
"..OlllLLLllllllLLLLLDDLLLLLDO...",
"..OllLLLLlllllLLLLLLLDLLLLLDO...",
".OllLLLLlllllLLLLLLLLDDLLLDDDO..",
"..OLLLLLllllLLLLLLLLDlDLLDDDO...",
"..OLLLlllllLLLLLLLlllllLLDDDO...",
"..OLLlllllLLDDLLLlllllLLDDDDO...",
"...OlllllLLLLllllLlllLLLLDDO....",
"...OllllLLLlllllLLLDLLLLLLDO....",
"...OlllLLLlllllLLLLDDLLLLLDO....",
"...OllLLLLllllLLLLLLDLLLLDDO....",
"...OlLLLLllllLLLLLLLDDLLDDDO....",
"...OLLLLLlllLLLLLLLDDDLDDDDO....",
"...OLLLLLllLLLLLLLDDDDDDDDDO....",
"....ODLLLlLLLLLLLDDDDDDDDDO.....",
".....ODLDLLLLLLLDDDDDDDDDO......",
"......OOODLLLLLDDDDDDDOOO.......",
".........OODLLDDDDDDOO..........",
"...........OODDDDDOOt...........",
"...........tTOOOOOTTt...........",
"...........tTtTTTTTTt...........",
"...........ttTTTTTTtt...........",
"...........tTTTTTTtTt...........",
"...........tTTTTTtTTt...........",
"...........tTTTTtTTTt...........",
"...........tTTTtTTTTt...........",
"...........tTTtTTTTTt...........",
"..........ttTTTTTTTTtt..........",
".........tttTTTTTTTTttt.........",
"........ttttTTTTTTTTtttt........",
"........tttttttttttttttt........"
};
