/* XPM */
static char *mario_level[] = {
"60 25 7 1",
"  c None",
"# c #783c14",
"B c #b4501e",
"? c #f0b41e",
"$ c #f0dc1e",
"@ c #ffffff",
"F c #00c83c",
"                                                            ",
"                                                            ",
"                                                 $$$        ",
"                                                #####       ",
"                                                            ",
"                                                            ",
"                                                     ###    ",
"                                                            ",
"                                                            ",
"                                             $ $            ",
"                                            #######         ",
"                                                            ",
"                                     $                      ",
"                                   #####                    ",
"                                                            ",
"                              $ $                           ",
"                             #####                          ",
"                                                            ",
"               ?B?B?                    $$$                 ",
"                                       #####                ",
"                                                            ",
"      $  $                   #                    #         ",
"  @         #       $$     # #       $            #      F  ",
"####################  ###########   ######   ###############",
"####################  ###########   ######   ###############"
};
